src/assets/outline/FilterAdd.svg

<svg width="24" height="24" viewBox="0 0 24 24"  xmlns="http://www.w3.org/2000/svg">
<path d="M16.8799 20.25C14.9599 20.25 13.1499 19.23 12.1699 17.58C11.6499 16.74 11.3799 15.76 11.3799 14.75C11.3799 11.72 13.8499 9.25 16.8799 9.25C19.9099 9.25 22.3799 11.72 22.3799 14.75C22.3799 15.76 22.0999 16.74 21.5799 17.59C20.6099 19.23 18.8099 20.25 16.8799 20.25ZM16.8799 10.75C14.6699 10.75 12.8799 12.54 12.8799 14.75C12.8799 15.48 13.0799 16.19 13.4599 16.8C14.1799 18.01 15.4899 18.75 16.8799 18.75C18.2999 18.75 19.5799 18.03 20.2999 16.81C20.6799 16.19 20.8799 15.48 20.8799 14.75C20.8799 12.54 19.0899 10.75 16.8799 10.75Z" />
<path d="M18.6599 15.4805H15.1099C14.6999 15.4805 14.3599 15.1405 14.3599 14.7305C14.3599 14.3205 14.6999 13.9805 15.1099 13.9805H18.6599C19.0699 13.9805 19.4099 14.3205 19.4099 14.7305C19.4099 15.1405 19.0699 15.4805 18.6599 15.4805Z" />
<path d="M16.8799 17.29C16.4699 17.29 16.1299 16.95 16.1299 16.54V13C16.1299 12.59 16.4699 12.25 16.8799 12.25C17.2899 12.25 17.6299 12.59 17.6299 13V16.55C17.6299 16.96 17.2999 17.29 16.8799 17.29Z" />
<path d="M10.9298 22.75C10.4498 22.75 9.96981 22.63 9.53981 22.39C8.64981 21.89 8.1198 20.99 8.1198 19.98V14.63C8.1198 14.13 7.78981 13.37 7.46981 12.98L3.6698 8.98999C3.0398 8.33999 2.5498 7.25001 2.5498 6.45001V4.12C2.5498 2.51 3.76981 1.25 5.31981 1.25H18.6598C20.1898 1.25 21.4298 2.49002 21.4298 4.02002V6.23999C21.4298 7.28999 20.8098 8.47003 20.2098 9.09003L18.4098 10.68C18.2298 10.84 17.9798 10.9 17.7398 10.85C17.4698 10.78 17.1798 10.75 16.8798 10.75C14.6698 10.75 12.8798 12.54 12.8798 14.75C12.8798 15.48 13.0798 16.19 13.4598 16.81C13.7798 17.34 14.2098 17.78 14.7098 18.09C14.9298 18.23 15.0698 18.47 15.0698 18.73V19.07C15.0698 19.86 14.5898 20.97 13.7898 21.44L12.4098 22.33C11.9598 22.61 11.4398 22.75 10.9298 22.75ZM5.32981 2.75C4.61981 2.75 4.05981 3.35 4.05981 4.12V6.45001C4.05981 6.81001 4.3598 7.55001 4.7598 7.95001L8.60981 12C9.11981 12.63 9.62981 13.7 9.62981 14.64V19.99C9.62981 20.65 10.0898 20.98 10.2798 21.09C10.7098 21.33 11.2198 21.32 11.6098 21.08L13.0098 20.18C13.2798 20.02 13.5498 19.51 13.5698 19.15C13.0198 18.74 12.5398 18.21 12.1798 17.61C11.6598 16.76 11.3798 15.78 11.3798 14.78C11.3798 11.75 13.8498 9.28003 16.8798 9.28003C17.1598 9.28003 17.4398 9.30003 17.6998 9.34003L19.1798 8.03003C19.5198 7.68003 19.9398 6.85001 19.9398 6.26001V4.03998C19.9398 3.33998 19.3698 2.77002 18.6698 2.77002H5.32981V2.75Z" />
</svg>

<?xml version="1.0" encoding="UTF-8"?>
<svg width="24" height="24" viewBox="0 0 24 24" xmlns="http://www.w3.org/2000/svg">
 <path d="m16.88 20.25c-1.92 0-3.73-1.02-4.71-2.67-0.52-0.84-0.79-1.82-0.79-2.83 0-3.03 2.47-5.5 5.5-5.5s5.5 2.47 5.5 5.5c0 1.01-0.28 1.99-0.8 2.84-0.97 1.64-2.77 2.66-4.7 2.66zm0-9.5c-2.21 0-4 1.79-4 4 0 0.73 0.2 1.44 0.58 2.05 0.72 1.21 2.03 1.95 3.42 1.95 1.42 0 2.7-0.72 3.42-1.94 0.38-0.62 0.58-1.33 0.58-2.06 0-2.21-1.79-4-4-4z"/>
 <path d="m18.66 15.48h-3.55c-0.41 0-0.75-0.34-0.75-0.75s0.34-0.75 0.75-0.75h3.55c0.41 0 0.75 0.34 0.75 0.75s-0.34 0.75-0.75 0.75z"/>
 <path d="m16.88 17.29c-0.41 0-0.75-0.34-0.75-0.75v-3.54c0-0.41 0.34-0.75 0.75-0.75s0.75 0.34 0.75 0.75v3.55c0 0.41-0.33 0.74-0.75 0.74z"/>
 <path d="m10.93 22.75c-0.48 0-0.95999-0.12-1.39-0.36-0.89-0.5-1.42-1.4-1.42-2.41v-5.35c0-0.5-0.32999-1.26-0.64999-1.65l-3.8-3.99c-0.63-0.65-1.12-1.74-1.12-2.54v-2.33c0-1.61 1.22-2.87 2.77-2.87h13.34c1.53 0 2.77 1.24 2.77 2.77v2.22c0 1.05-0.62 2.23-1.22 2.85l-1.8 1.59c-0.18 0.16-0.43 0.22-0.67 0.17-0.27-0.07-0.56-0.1-0.86-0.1-2.21 0-4 1.79-4 4 0 0.73 0.2 1.44 0.58 2.06 0.32 0.53 0.75 0.97 1.25 1.28 0.22 0.14 0.36 0.38 0.36 0.64v0.34c0 0.79-0.48 1.9-1.28 2.37l-1.38 0.89c-0.45 0.28-0.97 0.42-1.48 0.42zm-5.6-20c-0.71 0-1.27 0.6-1.27 1.37v2.33c0 0.36 0.29999 1.1 0.69999 1.5l3.85 4.05c0.51 0.63 1.02 1.7 1.02 2.64v5.35c0 0.66 0.45999 0.99 0.64999 1.1 0.43 0.24 0.94 0.23 1.33-0.01l1.4-0.9c0.27-0.16 0.54-0.67 0.56-1.03-0.55-0.41-1.03-0.94-1.39-1.54-0.52-0.85-0.8-1.83-0.8-2.83 0-3.03 2.47-5.5 5.5-5.5 0.28 0 0.56 0.02 0.82 0.06l1.48-1.31c0.34-0.35 0.76-1.18 0.76-1.77v-2.22c0-0.7-0.57-1.27-1.27-1.27h-13.34v-0.02002z"/>
</svg>
